X:1
T:Hor hai fatto l'estremo
T:Girolamo Scotto
T:Source : Madrigali a tre voci---Venetia---G.Scotto---1541. Editor : André Vierendeels (06/08/16).
T:Notes : Original clefs : C3, C4, F4 Editorial accidentals above the staff Original note values have been halved "Tertii toni"
T:Hor hai fatto l'estremo
T:©
T:©
T:©
T:©
T:©
T:©
C:Girolamo Scotto
Z:©
%%score [ 1 2 3 ]
L:1/8
Q:1/4=125
M:2/2
K:C
V:1 treble nm="Alto" snm="A"
V:2 treble-8 nm="Tenor" snm="T"
V:3 bass nm="Bass" snm="B"
V:1
 E4 E2 E2 | E2 E2 E4 | D3 E F4 | E3 F G3 F/E/ | D2 E2 F2 E2- | E2 D2 E2 G2- | G4 A2 A2 | D4 E2 E2 | %8
w: Hor hai fat-|to l'e- stre-|mo _ _|di _ _ _ _|_ tua pos- *|* * sa, O|_ cru- del|mor- * te,|
 E2 E2 E2 G2- | G2 F2 GFED | C3 B, CD E2- | E2 D2 EDCB, | A,2 D4 C2 | B,4 A,2 E2- | E2 D2 E4 | %15
w: hor ha- il re-|* gno d'A- * * *|mo- * * * *||re, im- po-|ve- ri- *|* * to,|
 z2 E2 F2 C2 | G4 F2 D2 | E2 A4 G2 | AGFE F2 C2 | C2 C2 F4 | E2 E2 F2 F2 | D2 D2 E2 G2- | %22
w: hor di bel-|lez- za'il fio-||* * * * re, e'l|lu- me hai|spen- to, è chiu-|so'in po- ca fos-|
 G2 F2 G3 F | E4 z2 C2 | C2 C2 E2 E2 | D3 E F2 G2 | A2 D2 E2 G2- | GFED CA, A2- | A2 G2 F2 E2- | %29
w: |sa, hor|hai spo- glia- ta|no- * * stra|vi- * * *||* ta'è sco- *|
 ED D4 C2 | B,2 E4 D2 | E2 B,2 C2 D2 | E3 F G2 A2- | AG G4 F2 | G4 z2 D2 | F2 F2 G2 A2- | %36
w: ||sa, d'og- ni'or- na-|men- * * *||to, è|del sov- ran ho-|
 A2 G4 F2- | F2 E2 F4 | z8 | z2 G2 G2 G2 | F2 E2 F4 | E4 F2 G2 | F2 D2 C2 A,2 | B,2 B,2 A,B,CD | %44
w: * no- *|* * re,||ma la fa-|ma, è'l va-|lo- re, che|mai non mo- *|re, che mai _ _ _|
 E2 D4 C2 | DEFG A2 F2 | G2 A3 G/F/ G2 | A4 z2 E2 | E2 E2 G2 F2- | FE E4 D2 | E4 z2 E2 | %51
w: _ _ non|mo- * * * re, non|è'in tua for- * *|zat, hab-|bi- t'ig- nu- de|_ _ l'os- *|sat, ha-|
 E2 E2 G2 F2- | FE E4 D2 | E2 E2 G2 E2- | E2 D2 E4 | D4 E4- | E8 |] %57
w: bi- t'ig- nu- de|_ _ l'os- *|sat, ha- bi- t'ig-|* nu- do|l'os- *|sat.|
V:2
 c4 B2 B2 | c2 c2 G3 A |"^-natural" _B4 A3 B | c4 B4- | B2 c2 A2 G2 | A2 A2 B2 B2 | c6 BA | %7
w: Hor hai fat-|to l'e- stre- *||mo di|_ tua pos- *|sa, O cru- del|mor- * *|
 B4 c2 G2 | c6 B2 | A2 A2 G2 G2 | A6 G2 | F4 E4 | F4 E2 A2- | A2 G2 AGFE | F4 E2 A2 | c2 c2 A2 A2 | %16
w: te, hor ha'il|re- gno|d'A- mo- re, im-|po- ve-|ri- *|||* to, hor|di bel- lez- za'il|
 B2 c3 B/A/ B2 | c4 B4 | A4 D2 A2 | A2 A2 d2 c2- | c2 B2 A2 A2 | B2 B2 c3 B | A4 G2 c2 | %23
w: fio- * * * *||* re, e'l|lu- me hai spen-|* to, è chiu-|so'in po _ ca|fos- sa, hor|
 c2 c2 B2 c2 | A3 B c2 GA | BABc d2 c2- | cA B2 c4 | B4 A4 | B4 A4 | G2 F2 E2 A2- | A2 G2 A4 | %31
w: hai spo- glia- ta|no- * * stra _|_ _ _ _ _ vi-||ta, è|sco- *|* * sa, è|_ _ sco-|
 B2 G2 A2 B2 | c4 c2 A2 | B2 c2 A4 | G2 G2 A2 B2 | c2 d3 c c2- | c2 B2 c2 A2 | G2 c4 A2 | %38
w: sa, d'og- ni'or- na-|men- to, d'og-|ni'or- na- men-|to, è del sov-|ran suo ho- no-||re, ma la|
 _B2 A2 G2 c2- | c2 B2 cBAG | A4 D2 d2- | d2 c2 d4 | z8 | z8 | z8 | z2 d2 d2 d2 | c4 B4 | %47
w: fa- ma'e, è'l va-|* * lo- * * *||* * re,||||non è'in tua|for- *|
 A2 c4 G2 | G2 G2 E2 F2 | G4 A4 | B2 cB AGAG/F/ | EF G2 E2 F2 | G2 c4 BA | B2 c2 B4 | A4 A4- | %55
w: zat, hab- bi-|t'ig- nu- de l'os-|||* * * sat, ha-|bi- t'ig- nu- *|* do l'os-|* sat.|
 A8- | A8 |] %57
w: _||
V:3
 A,4 E,2 E,2 | A,,2 C,4 C,2 | G,4 F,2 D,2 | A,2 E,4 G,2 | G,2 C,2 D,2 E,2 | F,4 E,4 | C,4 F,2 F,2 | %7
w: Hor hai fat-|to l'e- stre-|mo di tua|pos- sa, l'e-|stre- mo di tua|pos- sa,|O cru- del|
 G,4 C,4- | C,2 B,,A,, E,4 | z4 C,4 | F,6 C,2 | D,2 D,2 A,,2 A,,2 | D,4 A,,4 | E,4 A,,4 | %14
w: mor- *|* * * te,|hor|ha'il re-|gno d'A- mo- re'im-|po- ve-|ri- to,|
 z2 D,2 A,,2 A,,2 | A,2 A,2 F,4 | E,2 E,2 D,2 D,2 | C,2 A,,2 E,4 | A,,4 z2 F,2 | F,2 F,2 D,2 A,2- | %20
w: hor di bel-|lez- za'il fio|re, hor di bel-|lez- za'il fio-|re, e'l|lu- me hai spen-|
 A,2 G,2 F,2 D,2 | G,2 G,2 C,4 | D,4 z4 | z2 A,,2 E,2 E,2 | F,2 F,2 C,4 | G,4 D,2 E,2 | %26
w: * to'è chiu- so'in|po- ca fos-|sa,|hor hai spo-|glia- ta no-|stra vi- ta,|
 F,2 G,2 C,3 D, | E,2 E,2 F,4 | E,4 A,,3 B,, |"^#" C,2 D,2 A,,4 | E,4 F,4 | E,4 z4 | %32
w: è scos- * *|sa, è scos-|* sa, _|_ è scos-||sa,|
 z2 C,2 C,2 F,2 | E,2 C,2 D,4 | z2 E,2 F,2 G,2 | F,2 D,2 E,2 F,2 | D,2 G,2 C,2 D,2 | %37
w: d'og- ni'or- na-|men- * to,|d'og- ni'or- na-|men- to'è del so-|vra su'ho- no- re|
 z2 C,2 F,2 F,2 | G,2 F,4 E,2 | F,2 G,2 C,4 | z4 z2 D,2 | A,2 A,2 D,E,F,G, | A,2 B,3 A, A,2- | %43
w: ma la fa-|ma'e, e'l va-|lo- * re,|che|mai non mo- * * *||
 A,2 G,2 A,4 | G,2 F,2 E,4 | D,4 z4 | z2 A,,2 E,2 E,2 | F,4 C,4 | C,4 C,2 D,2 | E,4 F,4 | %50
w: ||re,|non e'in for-|zat, hab-|bi- t'ig- nu-|de l'os-|
 E,2 C,4 C,2 | C,4 C,2 D,2 | E,4 F,4 | E,2 A,,2 E,4 | A,,2 D,4 C,2 | D,4 A,,4- | A,,8 |] %57
w: sa, hab- bi-|t'ig- nu- do|l'os- *|sat, ha- bi-|t'ig- nu- do|l'os- sat.|_|

